assets/Peach/Flat/peach_flat.svg

<svg width="32" height="32" viewBox="0 0 32 32" fill="none" xmlns="http://www.w3.org/2000/svg">
<path d="M5.87012 2.16479H10.9817C13.7562 2.16479 16.0001 4.40874 16.0001 7.1832H10.8885C8.11406 7.1832 5.87012 4.93925 5.87012 2.16479Z" fill="#00D26A"/>
<path d="M16.0001 7.1832C16.0001 4.40874 18.2441 2.16479 21.0185 2.16479H26.1301C26.1301 4.93925 23.8862 7.1832 21.1117 7.1832H16.0001Z" fill="#00D26A"/>
<path d="M12.1687 5.99097C6.52606 5.99097 2 10.6175 2 15.9428C2 20.6175 4.67769 22.9161 7.3494 25.3163C9.74898 27.472 12.5977 29.9187 16 29.9187C19.4023 29.9187 22.251 27.472 24.6506 25.3163C27.3223 22.9161 30 20.6175 30 15.9428C30 10.6175 25.4739 5.99097 19.8313 5.99097C18.5301 5.99097 17.1084 6.20783 16.0241 6.64157C14.6506 6.15964 13.5422 5.99097 12.1687 5.99097Z" fill="#FF822D"/>
<path d="M19.0567 6.01587C22.0443 8.09288 24 11.5505 24 15.4648C24 16.0171 23.5523 16.4648 23 16.4648C22.4478 16.4648 22 16.0171 22 15.4648C22 11.4641 19.5269 8.04092 16.0261 6.64074C16.8979 6.2924 17.9873 6.08411 19.0567 6.01587Z" fill="#FF6723"/>
</svg>

<svg xmlns="http://www.w3.org/2000/svg" width="32" height="32" fill="none"><path fill="#00D26A" d="M5.87 2.165h5.112A5.015 5.015 0 0 1 16 7.183H10.89A5.015 5.015 0 0 1 5.87 2.165Z"/><path fill="#00D26A" d="M16 7.183a5.015 5.015 0 0 1 5.018-5.018h5.112a5.015 5.015 0 0 1-5.018 5.018H16Z"/><path fill="#FF822D" d="M12.169 5.991C6.526 5.991 2 10.618 2 15.943c0 4.675 2.678 6.973 5.35 9.373 2.399 2.156 5.248 4.603 8.65 4.603s6.251-2.447 8.65-4.603c2.672-2.4 5.35-4.698 5.35-9.373 0-5.325-4.526-9.952-10.169-9.952-1.3 0-2.723.217-3.807.65-1.373-.481-2.482-.65-3.855-.65Z"/><path fill="#FF6723" d="M19.057 6.016A11.487 11.487 0 0 1 24 15.465a1 1 0 1 1-2 0c0-4-2.473-7.424-5.974-8.824.872-.349 1.961-.557 3.03-.625Z"/></svg>
